icons/Video.svg

<svg width="24" height="24" viewBox="0 0 24 24" fill="none" xmlns="http://www.w3.org/2000/svg">
<g id="Video">
<path id="Vector" d="M13 5H5C3.34315 5 2 6.34315 2 8V16C2 17.6569 3.34315 19 5 19H13C14.6569 19 16 17.6569 16 16V8C16 6.34315 14.6569 5 13 5Z" stroke="#00153F" stroke-width="1.5" stroke-linecap="round" stroke-linejoin="round"/>
<path id="Vector_2" d="M16 10.2L20 6.25001C20.1698 6.09785 20.3795 5.99721 20.6044 5.9599C20.8294 5.92259 21.0603 5.95014 21.2702 6.03933C21.48 6.12852 21.6601 6.27565 21.7894 6.4635C21.9186 6.65135 21.9917 6.87214 22 7.10001V16.9C22.0006 17.1378 21.9305 17.3704 21.7987 17.5682C21.6669 17.7661 21.4793 17.9204 21.2596 18.0115C21.04 18.1025 20.7982 18.1263 20.5651 18.0797C20.3319 18.0332 20.1178 17.9184 19.95 17.75L16 13.8V10.2Z" stroke="#00153F" stroke-width="1.5" stroke-linecap="round" stroke-linejoin="round"/>
</g>
</svg>

<svg xmlns="http://www.w3.org/2000/svg" fill="none" viewBox="0 0 24 24"><path stroke="currentColor" stroke-linecap="round" stroke-linejoin="round" stroke-width="1.5" d="M13 5H5a3 3 0 0 0-3 3v8a3 3 0 0 0 3 3h8a3 3 0 0 0 3-3V8a3 3 0 0 0-3-3Zm3 5.2 4-3.95a1.2 1.2 0 0 1 2 .85v9.8a1.2 1.2 0 0 1-2.05.85L16 13.8v-3.6Z"/></svg>
